resources/haticons/SVG/slack.svg

<!-- Generated by IcoMoon.io -->
<svg version="1.1" xmlns="http://www.w3.org/2000/svg" width="24" height="24" viewBox="0 0 24 24">
<title>slack</title>
<path d="M5.042 15.165c-0.003 1.391-1.129 2.518-2.52 2.523h-0c-1.392-0.003-2.519-1.131-2.522-2.523v-0c0.004-1.391 1.131-2.517 2.522-2.52h2.52v2.52zM6.313 15.165c0.004-1.39 1.13-2.517 2.521-2.52h0c1.391 0.003 2.517 1.13 2.521 2.52v6.313c-0.003 1.391-1.13 2.518-2.521 2.522h-0c-1.391-0.004-2.518-1.131-2.521-2.522v-6.313zM8.834 5.042c-1.39-0.004-2.516-1.13-2.521-2.52v-0c0.003-1.391 1.13-2.518 2.521-2.522h0c1.391 0.004 2.518 1.131 2.521 2.522v2.52h-2.521zM8.834 6.313c1.391 0.004 2.517 1.13 2.521 2.521v0c-0.004 1.391-1.13 2.517-2.521 2.521h-6.312c-1.391-0.003-2.518-1.13-2.522-2.521v-0c0.004-1.391 1.131-2.518 2.522-2.521h6.312zM18.956 8.834c0.004-1.391 1.131-2.518 2.522-2.521h0c1.391 0.003 2.518 1.13 2.522 2.521v0c-0.004 1.391-1.131 2.518-2.522 2.521h-2.522v-2.521zM17.688 8.834c-0.004 1.391-1.131 2.518-2.523 2.521h-0c-1.39-0.004-2.517-1.13-2.52-2.521v-6.312c0.003-1.391 1.129-2.518 2.52-2.522h0c1.392 0.003 2.52 1.13 2.523 2.522v6.312zM15.165 18.956c1.392 0.003 2.52 1.13 2.523 2.522v0c-0.003 1.392-1.131 2.519-2.523 2.522h-0c-1.391-0.004-2.517-1.131-2.52-2.522v-2.522h2.52zM15.165 17.688c-1.391-0.004-2.518-1.132-2.52-2.523v-0c0.003-1.39 1.13-2.517 2.52-2.52h6.313c1.391 0.003 2.518 1.129 2.522 2.52v0c-0.003 1.392-1.13 2.52-2.522 2.523h-6.313z"></path>
</svg>

<svg xmlns="http://www.w3.org/2000/svg" width="24" height="24"><path d="M5.042 15.165a2.529 2.529 0 0 1-2.52 2.523A2.528 2.528 0 0 1 0 15.165a2.527 2.527 0 0 1 2.522-2.52h2.52v2.52zm1.271 0a2.527 2.527 0 0 1 2.521-2.52 2.527 2.527 0 0 1 2.521 2.52v6.313A2.528 2.528 0 0 1 8.834 24a2.528 2.528 0 0 1-2.521-2.522v-6.313zM8.834 5.042a2.529 2.529 0 0 1-2.521-2.52A2.528 2.528 0 0 1 8.834 0a2.528 2.528 0 0 1 2.521 2.522v2.52H8.834zm0 1.271a2.528 2.528 0 0 1 2.521 2.521 2.528 2.528 0 0 1-2.521 2.521H2.522A2.528 2.528 0 0 1 0 8.834a2.528 2.528 0 0 1 2.522-2.521h6.312zm10.122 2.521a2.528 2.528 0 0 1 2.522-2.521A2.528 2.528 0 0 1 24 8.834a2.528 2.528 0 0 1-2.522 2.521h-2.522V8.834zm-1.268 0a2.528 2.528 0 0 1-2.523 2.521 2.527 2.527 0 0 1-2.52-2.521V2.522A2.527 2.527 0 0 1 15.165 0a2.528 2.528 0 0 1 2.523 2.522v6.312zm-2.523 10.122a2.528 2.528 0 0 1 2.523 2.522A2.528 2.528 0 0 1 15.165 24a2.527 2.527 0 0 1-2.52-2.522v-2.522h2.52zm0-1.268a2.527 2.527 0 0 1-2.52-2.523 2.526 2.526 0 0 1 2.52-2.52h6.313A2.527 2.527 0 0 1 24 15.165a2.528 2.528 0 0 1-2.522 2.523h-6.313z"/></svg>
